X:1
T:Salterelle
T:Salterelle
T:Tielman Susato
C:Tielman Susato
%%score 1 2 3 4
L:1/8
M:3/2
K:F
V:1 treble 
V:2 treble 
V:3 treble 
V:4 treble 
V:1
 F8 G4 | A8 A4 | A6 B2 c2 A2 | B8 G4 | G8 G4 | G8 G4 | G6 A2 B2 G2 | A8 F4 | F8 G4 | A8 A4 | %10
 A6 B2 c2 A2 | B8 G4 | G6 A2 B2 G2 | A6 G2 F4 | E6 D2 E4 | F8 F4 :: c8 c4 | A8 A4 | d8 d4 | c8 c4 | %20
 A6 B2 c2 A2 | B6 A2 G4 | F8 E4 | F8 F4 :| %24
V:2
 A,8 E4 | F8 F4 | F8 E4 | G8 E4 | D8 D4 | E8 E4 | E4 D8 | F8 D4 | C8 E4 | F8 F4 | F8 E4 | G8 E4 | %12
 E8 D4 | F8 C4 | C6 D2 C4 | A,8 A,4 :: F8 F4 | F8 F4 | F8 F4 | F8 F4 | F8 F4 | F8 D4 | C4 C8 | %23
 A,8 A,4 :| %24
V:3
 A,8 C4 | C8 C4 | C8 C4 | D8 C4 | B,8 B,4 | C8 C4 | C4 _B,8 | C8 B,4 | A,8 C4 | C8 C4 | C8 C4 | %11
 D8 C4 | C8 B,4 | C6 B,2 A,4 | G,8 G,4 | F,8 F,4 :: A,8 A,4 | C8 C4 | B,8 B,4 | A,8 A,4 | C8 C4 | %21
 D6 C2 B,4 | A,4 G,8 | F,8 F,4 :| %24
V:4
 F,8 C,4 | F,8 F,4 | F,6 G,2 A,4 | G,8 C,4 | G,8 G,4 | C,8 C,4 | C,4 G,8 | F,8 B,,4 | F,8 C,4 | %9
 F,8 F,4 | F,6 G,2 A,4 | G,8 C,4 | C,8 G,4 | F,8 F,4 | C,6 B,,2 C,4 | F,,8 F,,4 :: F,8 F,4 | %17
 F,8 F,4 | B,,8 B,,4 | F,8 F,4 | F,8 F,4 | B,,8 B,,4 | F,4 C,8 | F,,8 F,,4 :| %24

